lib/brands/icons/gnome.svg

<svg xmlns="http://www.w3.org/2000/svg" fill="none" aria-hidden="true" viewBox="0 0 48 48"><g id="gnome-Icon"><path id="gnome" fill="black" fill-rule="evenodd" d="M14.8844 28.7394C15.1649 31.1529 15.5652 32.9755 16.4359 35.1244C17.3063 37.2728 19.2259 40.1449 21.5678 41.8542C23.9096 43.5628 27.7293 45.1587 30.3115 44.9873C32.8936 44.8166 34.0445 43.8624 35.2323 42.6539C36.4194 41.4454 39.089 37.7668 40.0194 34.3317C40.9505 30.8973 40.3696 29.692 39.6204 28.6953C38.8718 27.6987 37.1825 27.0222 34.8769 27.1983C32.5714 27.3745 30.0808 28.8048 29.9391 29.9868C29.72 31.8138 33.1224 32.0663 32.5714 33.6711C32.35 34.3174 31.5253 34.8379 29.3361 34.7718C27.1468 34.7064 24.7504 33.6431 24.1933 31.9539C23.6362 30.2648 23.8797 28.7129 25.0627 27.8937C30.059 24.435 31.7261 21.5859 32.0538 20.2902C32.3815 18.9946 31.8688 17.4755 30.5724 16.311C27.7888 13.8104 22.191 14.928 19.4765 16.8516C15.4476 19.7075 14.3434 24.0853 14.8844 28.7394ZM21.4576 5.12633C20.9914 6.17753 20.3771 8.3728 20.9968 10.1835C21.6169 11.9942 23.9626 14.0443 26.5425 13.5659C29.1221 13.0872 29.0431 9.06083 28.5374 7.31394C28.0799 5.73459 25.7775 3.13563 24.1692 3.00926C22.5608 2.88288 21.9241 4.0745 21.4576 5.12633ZM13.8823 11.3378C15.3927 13.5477 17.7548 13.893 18.9538 13.4845C20.1528 13.0757 19.6346 9.73802 18.9124 8.20494C18.0099 6.29018 15.9058 6.11435 14.6814 6.73824C13.457 7.36149 12.3723 9.12785 13.8823 11.3378ZM10.0044 12.9181C8.40831 13.4692 8.86935 16.7751 9.79304 18.0883C10.7164 19.4015 13.4775 20.1294 14.5416 18.9448C15.606 17.7602 14.2807 15.4175 13.6411 14.6596C13.0014 13.901 11.6006 12.367 10.0044 12.9181ZM7.63369 21.1828C8.08638 20.1498 10.1709 20.2529 11.7346 21.1522C13.7053 22.286 13.7853 25.1304 12.6235 25.5944C11.6841 25.9697 10.0192 25.7268 8.97955 24.9032C7.93988 24.0795 7.181 22.2155 7.63369 21.1828Z" clip-rule="evenodd"/></g></svg>

<svg xmlns="http://www.w3.org/2000/svg" fill="none" aria-hidden="true" viewBox="0 0 48 48"><path fill="#000" fill-rule="evenodd" d="M14.884 28.74c.28 2.413.681 4.235 1.552 6.384.87 2.149 2.79 5.02 5.132 6.73 2.342 1.709 6.161 3.305 8.743 3.133 2.583-.17 3.733-1.125 4.921-2.333 1.187-1.209 3.857-4.887 4.787-8.322.931-3.435.35-4.64-.399-5.637-.748-.996-2.438-1.673-4.743-1.497-2.306.177-4.796 1.607-4.938 2.789-.219 1.827 3.183 2.08 2.632 3.684-.221.646-1.046 1.167-3.235 1.1-2.19-.065-4.586-1.128-5.143-2.817-.557-1.69-.313-3.241.87-4.06 4.996-3.459 6.663-6.308 6.99-7.604.329-1.295-.184-2.814-1.48-3.979-2.784-2.5-8.382-1.383-11.096.54-4.03 2.857-5.134 7.234-4.593 11.888Zm6.574-23.614c-.467 1.052-1.08 3.247-.461 5.058.62 1.81 2.966 3.86 5.546 3.382 2.58-.479 2.5-4.505 1.994-6.252-.457-1.58-2.76-4.178-4.368-4.305-1.608-.126-2.245 1.065-2.711 2.117Zm-7.576 6.212c1.51 2.21 3.873 2.555 5.072 2.147 1.199-.41.68-3.747-.042-5.28-.902-1.915-3.006-2.09-4.23-1.467-1.225.623-2.31 2.39-.8 4.6Zm-3.878 1.58c-1.596.551-1.135 3.857-.211 5.17.923 1.313 3.684 2.041 4.749.857 1.064-1.185-.261-3.527-.9-4.285-.64-.759-2.041-2.293-3.638-1.742Zm-2.37 8.265c.452-1.033 2.537-.93 4.1-.03 1.971 1.133 2.051 3.977.89 4.441-.94.376-2.605.133-3.644-.69-1.04-.825-1.799-2.689-1.346-3.721Z" clip-rule="evenodd"/></svg>
